X: 316
T:Fortuna desperata
N: Derived from Jos2711-Fortuna_desperata.krn
C: Josquin des Prez
%%abc-version 2.0
%%abcx-abcm2ps-target-version 5.9.1 (29 Sep 2008)
%%abc-creator hum2abc beta
%%abcx-conversion-date 2019/02/12 16:15:54
%%abc-edited-by Jesse Rodin
%%abc-edited-by Jesse Rodin; Victoria Chang 2011/05/30/
%%abcx-initial-encoding-date 2011/05/30/
%%humdrum-veritas 3424619063
%%humdrum-veritas-data 1172475525
%%linebreak <none>
%%barnumbers 0
L: 1/4
M: 2/1
Q: 1/2=120
V: 1 clef=treble
V: 2 clef=treble-8
V: 3 clef=bass
K: F
[V:1] F8 | 
[V:2] F8 | 
[V:3] F,4D,2B,,2- | 
[V:1] F4E4 | 
[V:2] F4G4 | 
[V:3] B,,C,D,2C,2B,,2 | 
[V:1] C8 | 
[V:2] A8 | 
[V:3] A,,2A,3G,F,2- | 
[V:1] z4G4 | 
[V:2] G8 | 
[V:3] F,2E,D,E,4 | 
[V:1] A8 | 
[V:2] F8 | 
[V:3] F,2C3B,A,G, | 
[V:1] A4A4 | 
[V:2] z4c4 | 
[V:3] F,2A,3G,F,E, | 
[V:1] A8 | 
[V:2] d8 | 
[V:3] D,2D3CB,A, | 
[V:1] G8 | 
[V:2] B4c4 | 
[V:3] B,A,G,F,E,4 | 
[V:1] F8- | 
[V:2] d8- | 
[V:3] D,4z2D2- | 
[V:1] F4D4 | 
[V:2] d4B4 | 
[V:3] DCB,A,D2G,2- | 
[V:1] D8 | 
[V:2] B8 | 
[V:3] G,F,E,D,G,4 | 
[V:1] E4D4 | 
[V:2] c4B4 | 
[V:3] z2C3B,A,G, | 
[V:1] F4F4- | 
[V:2] A4F4 | 
[V:3] C2F,3E,D,C, | 
[V:1] F4E4 | 
[V:2] G8 | 
[V:3] F,2E,D,C,4 | 
[V:1] F8 | 
[V:2] F8- | 
[V:3] z2C3B,A,G, | 
[V:1] z8 | 
[V:2] F8- | 
[V:3] C2A,3G,F,E, | 
[V:1] c8- | 
[V:2] F8 | 
[V:3] A,2F,3E,D,C, | 
[V:1] c4A4 | 
[V:2] z8 | 
[V:3] F,4z2D2- | 
[V:1] B8 | 
[V:2] z8 | 
[V:3] DCB,A,D2B,2- | 
[V:1] d4c2B2 | 
[V:2] z8 | 
[V:3] B,A,G,F,A,2F,2- | 
[V:1] A8 | 
[V:2] f8- | 
[V:3] F,E,D,C,F,2D,2- | 
[V:1] z4A4 | 
[V:2] f4d4 | 
[V:3] D,C,B,,A,,D,2F,2 | 
[V:1] G6F2 | 
[V:2] e8 | 
[V:3] E,2C,3D,E,F, | 
[V:1] E4E4 | 
[V:2] g4f2e2 | 
[V:3] C,2E,3F,G,A, | 
[V:1] F8 | 
[V:2] d8 | 
[V:3] D,4z2D2 | 
[V:1] G4A4 | 
[V:2] e4f4 | 
[V:3] CB,A,G,F,E,D,2 | 
[V:1] B8- | 
[V:2] g8- | 
[V:3] z2G,3F,G,2 | 
[V:1] B4A4 | 
[V:2] g4f4 | 
[V:3] E,2G,2D,2F,2- | 
[V:1] A4F4 | 
[V:2] f4d4 | 
[V:3] F,E,F,2D,2F,2 | 
[V:1] G8 | 
[V:2] e8 | 
[V:3] C,2C3B,A,G, | 
[V:1] A6B2 | 
[V:2] f8 | 
[V:3] F,E,D,3E,F,G, | 
[V:1] c4c4 | 
[V:2] z4f4 | 
[V:3] A,2F,3G,A,2 | 
[V:1] d4c2B2- | 
[V:2] f4e2d2- | 
[V:3] D,E,F,G,A,2B,2 | 
[V:1] B2A2A4- | 
[V:2] d2c2A4 | 
[V:3] G,2A,2F,2A,2 | 
[V:1] A2GFG4 | 
[V:2] B8 | 
[V:3] E,2G,2E,2G,2 | 
[V:1] A8 | 
[V:2] A8 | 
[V:3] D,2F,2D,2F,2 | 
[V:1] z8 | 
[V:2] c8 | 
[V:3] C,2E,2C,2E,2 | 
[V:1] A6GF | 
[V:2] d8 | 
[V:3] D,2E,2F,2G,2 | 
[V:1] E8 | 
[V:2] c8 | 
[V:3] C,4z2C2- | 
[V:1] C8 | 
[V:2] e8 | 
[V:3] CB,A,G,A,3G, | 
[V:1] z4C4 | 
[V:2] z4e4 | 
[V:3] F,E,F,3G,A,2 | 
[V:1] D4F4 | 
[V:2] f4d4 | 
[V:3] D,2D3CD2 | 
[V:1] E8 | 
[V:2] c8 | 
[V:3] A,2G,2A,4 | 
[V:1] F4G4- | 
[V:2] d4e4- | 
[V:3] D,E,F,G,C,2C2- | 
[V:1] G2F2E2D2 | 
[V:2] e2d2c2B2 | 
[V:3] CB,CDA,2B,2 | 
[V:1] E8 | 
[V:2] c8 | 
[V:3] A,2G,F,E,2A,2 | 
[V:1] D4F4- | 
[V:2] d8 | 
[V:3] B,2A,G,F,2B,,2- | 
[V:1] F2E2D2C2 | 
[V:2] d2c2B2A2 | 
[V:3] B,,A,,B,,C,D,C,D,E, | 
[V:1] C8 | 
[V:2] A8 | 
[V:3] [M:2/1](3F,2G,2A,2(3F,2G,2A,2 | 
[V:1] D8 | 
[V:2] B8 | 
[V:3] (3G,2A,2B,2(3G,2F,2G,2 | 
[V:1] E8 | 
[V:2] G8 | 
[V:3] (3C,2D,2E,2(3C,2B,,2C,2 | 
[V:1] z4F4 | 
[V:2] A8 | 
[V:3] (3A,,2B,,2C,2(3D,2E,2F,2 | 
[V:1] G4A4 | 
[V:2] B4A4 | 
[V:3] (3E,2F,2G,2(3F,2G,2A,2 | 
[V:1] B6A2 | 
[V:2] d6c2 | 
[V:3] (3G,2A,2B,2(3G,2F,2G,2 | 
[V:1] G4F4- | 
[V:2] B4A4 | 
[V:3] (3E,2F,2G,2(3D,2E,2F,2 | 
[V:1] F4E4 | 
[V:2] G8 | 
[V:3] [M:2/1]C,2B,,2C,4 | 
[V:1] F8 |]  
[V:2] F8 |]  
[V:3] F,8 |]  



